src/main/resources/icons/AllIcons/nodes/pluginobsolete.svg

<!-- Copyright 2000-2021 JetBrains s.r.o. Use of this source code is governed by the Apache 2.0 license that can be found in the LICENSE file. -->
<svg xmlns="http://www.w3.org/2000/svg" width="16" height="16" viewBox="0 0 16 16">
  <g fill="none" fill-opacity=".8" fill-rule="evenodd">
    <path fill="#9AA7B0" d="M3,5.9902 C3,6.3122 3.181,6.6082 3.467,6.7542 L3.779,6.9112 C4.022,7.0342 4.281,7.0212 4.5,6.9212 L4.5,5.5062 L4.5,4.4942 L4.5,3.0792 C4.281,2.9782 4.022,2.9662 3.779,3.0892 L3.467,3.2462 C3.181,3.3912 3,3.6872 3,4.0102 L3,4.4942 L3,5.5062 L3,5.9902 Z"/>
    <path fill="#9AA7B0" d="M6,14.0002 C4.111,14.0002 1.978,11.8222 2,10.0002 L2,8.0002 C2,6.5792 2.566,6.0002 3,6.0002 L3,4.0002 C1.9,4.0002 1,6.0792 1,8.0002 L1,10.0002 C1,12.7332 3.6,15.0002 6,15.0002 L11,15.0002 L11,14.0002 L6,14.0002 Z"/>
    <path fill="#9AA7B0" d="M11,1.0002 L11,8.5002 L11,9.0002 L9.5,9.0002 L7.137,9.0002 C5.957,9.0002 5,7.9242 5,6.5962 L5,3.4032 C5,2.0762 5.957,1.0002 7.137,1.0002 L11,1.0002 Z M10,2.0002 L7.137,2.0002 C6.51,2.0002 6,2.6292 6,3.4032 L6,6.5962 C6,7.3712 6.51,8.0002 7.137,8.0002 L9.5,8.0002 L10,8.0002 L10,2.0002 Z"/>
    <polygon fill="#9AA7B0" points="11.5 8 15 8 15 7 11.5 7"/>
    <polygon fill="#9AA7B0" points="11.5 3 15 3 15 2 11.5 2"/>
  </g>
</svg>

<svg xmlns="http://www.w3.org/2000/svg" width="16" height="16" viewBox="0 0 16 16"><rect id="frame" width="16" height="16" fill="none"/><g fill="#9AA7B0" fill-opacity=".8" fill-rule="evenodd"><path d="M3 5.99c0 .322.181.618.467.764l.312.157a.82.82 0 0 0 .721.01V3.08a.816.816 0 0 0-.721.01l-.312.157A.857.857 0 0 0 3 4.01v1.98z"/><path d="M6 14c-1.889 0-4.022-2.178-4-4V8c0-1.42.566-2 1-2V4C1.9 4 1 6.08 1 8v2c0 2.733 2.6 5 5 5h5v-1H6z"/><path d="M11 1v8H7.137C5.957 9 5 7.924 5 6.596V3.403C5 2.076 5.957 1 7.137 1H11zm-1 1H7.137C6.51 2 6 2.63 6 3.403v3.193C6 7.371 6.51 8 7.137 8H10V2z"/><path d="M11.5 8H15V7h-3.5z"/><path d="M11.5 3H15V2h-3.5z"/></g></svg>
